!!!COM: Robert Schumann
!!!CNT: Deutscher
!!!TXO: Deutsche 
!!!OTL: Allna2chtlich im Traume
!!!OPR: Dichterliebe
!!!OPS: Opus 48
!!!ONM: No. 14
!!!LYR: Heine
!!!ENC: Brian Bice
!!!YOR: Sa2mtliche Lieder, vol. 1, C.F. Peters
!!!ODT: 1840/
!!NB: Vocal melody and text only encoded.
**kern	**silbe
*clefG2	*
*k[f#c#g#d#a#]	*
*M2/4	*
=0	=0
4.r	.
{8b	{All-
=1	=1
8a#	-na2cht-
8f#	-lich
8r	.
8cc#	im
=2	=2
8b	Trau-
8f#}	-me}
4r	.
=3	=3
{4.cc#	{seh'
8g#	ich
=4	=4
4a#}	dich,}
8r	.
{8b	{und
=5	=5
8a#	se-
8f#	-he
8r	.
8cc#	dich
=6	=6
8b	freund-
8f#}	-lich,}
4r	.
=7	=7
{4.cc#	{freund-
8g#	-lich
=8	=8
8b	gru2-
8a#}	-ssen,}
8r	.
{8f#	{und
=9	=9
*M3/4	*
8.f#	laut
16f#	auf-
16g#	-wein-
16g#	-end
16f##	stu2rz'
16g#	ich
8cc#}	mich}
16r	.
{16g#	{zu
=10	=10
*M2/4	*
8.b	dei-
16d#	-nen
8.f#	su2-
16A#	-ssen
=11	=11
16c#	Fu2-
16B}	-ssen.}
8r	.
4r	.
=13	=13
4r	.
8r	.
{8b	{Du
=14	=14
8a#	sie-
8f#	-hest
8r	.
8cc#	mich
=15	=15
4b}	an,}
4r	.
=16	=16
{4.cc#	{weh-
16g#	-mu2-
16g#	-tig-
=17	=17
4a#	-lich
8r	.
8b	und
=18	=18
8a#	schu2tt-
8f#}	-elst,}
4r	.
=19	=19
{8b	{schu2tt-
8f#	-elst
8r	.
8dd#	das
=20	=20
4.cc#	blon-
8g#	-de
=21	=21
8b	Ko2pf-
8a#}	-chen;}
8r	.
{8f#	{aus
=22	=22
*M3/4	*
8.f#	dei-
16f#	-nen
16g#	Au-
16g#	-gen
16f##	schlei-
16g#	-chen
8cc#}	sich}
16r	.
{16g#	{die
=23	=23
*M2/4	*
8.b	Per-
16d#	-len-
8.f#	-Tra2-
16A#	-nen-
=24	=24
16c#	-tro2pf-
16b}	-chen.}
8r	.
4r	.
=26	=26
4r	.
8r	.
{8b	{Du
=27	=27
8a#	sagst
8f#}	mir}
4r	.
=28	=28
{8b	{heim-
8f#	-lich
8r	.
8dd#	ein
=29	=29
4.cc#	lei-
8g#	-ses
=30	=30
4a#}	Wort,}
8r	.
{8b	{und
=31	=31
4a#	gibst
8.f#	mir
16cc#	den
=32	=32
4.b}	Strauss,}
{8dd#	{den
=33	=33
4cc#	Strauss
8g#	von
8g#	Cy-
=34	=34
8b	-pres-
8a#}	-sen.}
16r	.
{16f#	{Ich
16f#	wa-
16f#	-che
=35	=35
4f#}	auf,}
8r	.
{16g#	{und
16g#	der
=36	=36
8.a#	Strauss
16a#	ist
8b}	fort,}
{8cc#	{und's
=37	=37
16dd#	Wort
16b	hab'
16b	ich
16g#	ver-
16f#	-ges-
16f#}	-sen.}
8r	.
*-	*-
